svg/emoji_u1f967.svg

<svg width="128" height="128" xmlns="http://www.w3.org/2000/svg"><linearGradient id="a" gradientTransform="rotate(2.292 65.738 66.222)" gradientUnits="userSpaceOnUse" x1="53.505" x2="53.505" y1="22.295" y2="10.358"><stop offset="0" stop-color="#c29f76"/></linearGradient><path d="M65.16 12.17c-.3-.02-5.8-9.82-14.8-6.61-5.13 1.83-4.63 10.43-3.32 13.41 4.94 2.83 9.07 6.93 14.85 7.54-1.55-.65-3.06-1.37-4.48-2.26 1.42.89 2.93 1.61 4.48 2.26.24.03.48.06.72.07.2-4.99.78-9.94 2.55-14.41z" fill="url(#a)"/><linearGradient id="b" gradientTransform="rotate(2.292 65.738 66.222)" gradientUnits="userSpaceOnUse" x1="70.932" x2="70.932" y1="11.915" y2="29.375"><stop offset=".019" stop-color="#f8dfc2"/></linearGradient><path d="M83.49 19.6c-1.27-1.56-2.15-3.73-3.55-4.95-4.67-4.08-9.47-2.04-14.78-2.48-1.77 4.48-2.35 9.43-2.55 14.4-.25-.01-.48-.04-.72-.07 6.35 2.65 13.46 3.95 18.35 9.25-.04-.59-.06-1.18-.07-1.77-1.95-1.41-3.94-2.73-6.06-3.78 2.12 1.05 4.11 2.37 6.06 3.78-.08-5.06 1.03-10.01 3.32-14.38z" fill="url(#b)"/><linearGradient id="c" gradientTransform="rotate(2.292 65.738 66.222)" gradientUnits="userSpaceOnUse" x1="90.734" x2="90.734" y1="19.497" y2="37.69"><stop offset=".019" stop-color="#f8dfc2"/></linearGradient><path d="M104.07 32.21c-.98-2.3-1.34-5.65-4.69-8.53-1.33-1.14-3.07-2.51-5.97-3.02-2.34-.42-5.39 1.37-7.7.61-.91-.29-1.61-.92-2.23-1.68-2.28 4.38-3.39 9.33-3.32 14.39 6.64 4.81 12.69 10.75 20.87 11.08.2-4.71 1.03-9.06 3.04-12.85z" fill="url(#c)"/><linearGradient id="d" gradientTransform="rotate(2.292 65.738 66.222)" gradientUnits="userSpaceOnUse" x1="111.296" x2="111.296" y1="33.427" y2="52.659"><stop offset=".019" stop-color="#f8dfc2"/></linearGradient><path d="M113.16 57.41c4.67-1.78 8.78-3.47 8.84-3.69 2.31-8.11 4.73-13.22-.24-16.95-5.78-4.34-9.42.68-15.66-2.22-1.02-.47-1.58-1.3-2.02-2.33-2.01 3.79-2.85 8.14-3.04 12.85-.41-.02-.82-.06-1.22-.1 3.35 5.23 8.04 9.43 13.34 12.44z" fill="url(#d)"/><path d="M99.82 44.96c-7.56-.83-13.34-6.41-19.65-10.98.01.59.02 1.18.07 1.77-4.89-5.3-12-6.6-18.35-9.25-5.78-.61-10.18-4.62-15.12-7.46.02.04.28-.82.3-.78l-14.1 37.19-9.63 20.06c.55-1.15 11.07-1.57 12.64-1.79 4.42-.61 8.85-1.22 13.27-1.84 8.84-1.26 17.67-2.6 26.44-4.27 8.77-1.66 17.48-3.64 26.04-6.16 2.59-.76 7.24-2.44 11.43-4.04-5.3-3.01-9.99-7.21-13.34-12.45z" fill="#f2d299"/><linearGradient id="e" gradientTransform="rotate(2.292 65.738 66.222)" gradientUnits="userSpaceOnUse" x1="63.955" x2="63.955" y1="56.614" y2="113.225"><stop offset="0" stop-color="#a68367"/></linearGradient><path d="M23.71 74.82L5.42 92.19l.2 25.6s-.62 4.69.93 5.24c1.56.56 17.35-3.02 20.71-3.66 8.53-1.64 16.86-4.17 25.14-6.79 3.68-1.16 7.37-2.8 11.14-3.42 4.34-.71 8.25-1.48 12.43-2.96 12.39-4.4 24.76-8.63 37.18-12.72 2.65-.87 5.51-3.09 6.13-5.9.59-2.69.06-5.64.31-8.39.78-8.48 1.56-16.96 2.35-25.43-31.39 13.17-65.1 16.19-98.23 21.06z" fill="url(#e)"/><path d="M105.75 85.49c2.93-2.01 5.82-3.56 8.42-5.27.34-5.75.87-14.84 1.18-20.02-7.28 3.1-14.67 5.79-21.64 8.93-12.86 3.7-26.73 6.32-39.71 13.2-3.26 1.99-5.8 3.82-9.02 4.75-7.44.76-13.48 1.75-19.91 3.61-6.68 1.62-12.59 4.94-19.76 4.65.23 4.63.61 13.18.51 16.17-.08 2.27-.21 4.47-.11 6.06 25.79-7.12 51.59-14.35 77.5-24.52 6.47-2.92 17-1.44 22.54-7.56z" fill="#9e4100"/><path d="M105.75 85.49c-5.54 6.13-16.07 4.64-22.54 7.56-25.92 10.17-51.71 17.4-77.5 24.52.08 1.34.32 2.23.89 2.32 1.24.2 17.86-3.35 23.61-5.7s25.43-6.86 32.12-8.76c0 0 19.27-5.4 23.5-7.4s8.79-3.35 16.06-6.05c5.85-2.17 11.81-3.61 12-6.88.04-.72.15-2.52.28-4.9-2.59 1.73-5.49 3.27-8.42 5.29zM24.67 91.91c6.43-1.86 14.23-2.78 21.67-3.53 3.21-.93 5.08-3.32 8.33-5.31 14.53-5.94 26.18-10.23 39.04-13.95 6.97-3.14 14.36-5.83 21.64-8.93l.23-3.95-15.19 3.99L5.15 92.27s.07 1.23.16 3.07c3.37 3.51 12.68-1.81 19.36-3.43z" fill="#873f0e"/><linearGradient id="f" gradientTransform="rotate(2.292 65.738 66.222)" gradientUnits="userSpaceOnUse" x1="7.025" x2="82.139" y1="96.858" y2="35.144"><stop offset=".019" stop-color="#f89d53"/></linearGradient><path d="M47.05 18.52S23.67 55.88 17.4 68.6c-7.02 14.25-9.49 17.33-9.49 17.33s-4.59 6.58-1.8 6.63c1.82.03 6.29-.18 11.88-2.05 2.98-1 6.83-2.95 10.68-3.23 2.73-.2 7.21-1.11 12.19-3.06 5.45-2.14 11.73-4.06 18.39-5.91 9.59-2.67 17.77-8.08 21.76-9.53 9.39-3.42 34.94-12.79 34.94-12.79S95.91 40.83 79.18 31.93 47.05 18.52 47.05 18.52z" fill="url(#f)"/><path d="M57 56.33c-3.39 0-6.46.77-8.77 2.02-.24-.01-.48-.02-.73-.02-4.31 0-8.12 1.24-10.48 3.15-.56-.09-1.15-.15-1.77-.15-3.45 0-6.42.94-6.42 2.92 0 1.97 1.81 3.82 5.25 3.83 1.76 3.01 7.56 5.83 13.25 5.83 3.39 0 6.63-1.02 8.94-2.27.24.01.48.02.73.02 7.18 0 13-3.43 13-7.67 0-4.22-5.82-7.66-13-7.66z" opacity=".61" fill="#915023"/><path d="M67.45 52.62c2.29 2.29 3.07 6.62 1.95 10.02-.75 2.27-2.14 4.4-4.09 5.48-4.22 2.33-9.83 2.26-10.56 2.59 3.33-4.41 12.69-18.1 12.7-18.09z" fill="#d9c1a5"/><path d="M62.69 48.35c16.83 9.06-6.81 21.79-6.82 21.79-5.91 2.26-9.62 2.34-14.81.86-4.04-1.16-5.34-3.78-6.42-6.27 6.64-1.63 14.27-.82 20.57-4.23 3.67-1.41 9.36-5.97 7.48-12.15z" fill="#fde9d2"/><path d="M62.64 48.01c.08.21.21.36.21.36 1.88 6.18-3.89 10.73-7.56 12.13-6.3 3.41-13.69 2.83-20.33 4.46a1.3 1.3 0 0 0-.32-.3c5.25-2.38 10.88-3.85 16.91-5.87 4.92-2.66 8.98-5.85 11.09-10.78z" fill="#eed4b5"/><path d="M33.31 52.36c.04.01.07.01.11.02-.03.01-.07.03-.1.04-.01-.02-.01-.04-.01-.06z" fill="#fbe2c5"/><path d="M33.34 52.87c3.3-.58 7.45.26 10.27.17 5.93-.19 14.64-5.58 12.01-13.87-.31-2.43-2.53-5.15-5.56-6.43a10.5 10.5 0 0 0-1.09-.75c13.06 2.98 13.88 12.38 13.68 15.98-.14.4-1.81 6.4-11.1 10.82-3.76 1.26-7.63 2.26-11.33 3.66-2.98 1.13-5.55 3.46-8.89 1.73-2.2-1.14-3.53-3.76-3.16-6.21.5-3.32 2.57-4.65 5.17-5.1z" fill="#fbe2c5"/><path d="M52.91 37.62c.22-1.37-.99-3.39-2.85-4.87 3.02 1.28 5.25 4 5.56 6.43 2.63 8.29-6.08 13.68-12.01 13.87-3.42.42-6.86-.18-10.19-.66 8.11-3.14 17.17-4.81 19.49-14.77z" fill="#eed4b5"/><path d="M33.59 46.33c.54-1.35 1.56-2.53 3.31-3.49 3.88-2.12 8.51-1.45 12.58-3.14 4.1-1.71.9-6.31-.47-7.71.58.13.81.32 1.11.66 1.86 1.48 3.01 3.59 2.8 4.96-2.32 9.97-11.38 11.63-19.49 14.76-.04-.01-.07-.01-.11-.02-.34-2.23-.43-4.27.27-6.02z" fill="#fdf2e6"/><g opacity=".2"><path d="M53.94 5.04v3.17c4.18 0 7.25 4.13 8.26 5.49.52.69 1.22 1.64 2.69 1.76.63.05 1.28.08 1.99.08 1.03 0 2-.05 2.95-.1.86-.05 1.67-.09 2.45-.09 2.14 0 3.81.31 5.56 1.83.47.41 1 1.28 1.52 2.12.5.81 1.01 1.64 1.65 2.44 1.1 1.36 2.32 2.25 3.72 2.7.7.23 1.47.34 2.28.34 1.26 0 2.47-.27 3.54-.51.77-.17 1.56-.35 2.09-.35.12 0 .19.01.22.01 2.06.37 3.28 1.3 4.46 2.31 1.9 1.62 2.48 3.43 3.11 5.34.22.67.44 1.35.72 2.02.52 1.23 1.46 2.98 3.6 3.97 1.82.85 3.67 1.26 5.65 1.26 1.33 0 2.54-.18 3.61-.34.88-.13 1.71-.26 2.45-.26.91 0 1.95.15 3.38 1.22 2.05 1.54 2.32 2.78-.03 10.56-.25.82-.51 1.68-.76 2.57-.15.32-.25.68-.28 1.04l-.95 10.31-1.39 15.11c-.12 1.32-.09 2.6-.06 3.83.04 1.52.07 2.96-.19 4.16-.3 1.36-2.07 2.93-4.02 3.57-12.3 4.04-24.83 8.33-37.25 12.75-3.8 1.35-7.36 2.08-11.88 2.82-2.88.47-5.62 1.45-8.28 2.39-1.14.41-2.22.79-3.3 1.13-7.89 2.5-16.3 5.07-24.78 6.7-.74.14-2 .41-3.6.75-3.74.79-10.87 2.3-14.39 2.77 0-.51.03-1.07.1-1.56.02-.15.03-.29.03-.44l-.17-19.06v-.12c-.06-1.25-.11-2.43-.16-3.42-.04-.8-.07-1.49-.1-2.01.18-.55.2-1.13.07-1.69.25-.78 1.13-2.39 2.03-3.69.56-.74 3.26-4.6 9.77-17.8 5.84-11.85 26.89-45.63 29.27-49.44 0-.01.01-.01.01-.02l.01-.01.05-.08.05-.07c.52-.84.6-1.93.26-2.86v-.01c-.63-1.67-.87-5.34.14-7.53.47-1.02 1.02-1.31 1.4-1.45.86-.31 1.7-.46 2.52-.46V5.04m-.02 0c-1.12 0-2.32.19-3.59.65-4.97 1.77-4.65 9.88-3.44 13.09l-.09.24c-2.38 3.81-23.51 37.72-29.42 49.72-7.02 14.25-9.49 17.33-9.49 17.33s-3.41 4.89-2.55 6.26l-.21.07s.07 1.23.16 3.07c.05.99.1 2.16.16 3.41l.15 19.04s-.62 4.69.93 5.24c.11.04.3.06.55.06 3.22 0 17.05-3.12 20.16-3.72 8.53-1.64 16.86-4.17 25.14-6.79 3.68-1.16 7.37-2.8 11.14-3.42 4.34-.71 8.25-1.48 12.43-2.96 12.39-4.4 24.76-8.63 37.18-12.72 2.65-.87 5.51-3.09 6.13-5.9.59-2.69.06-5.64.31-8.39l2.34-25.42c.03-.02.05-.04.05-.05 2.31-8.11 4.73-13.22-.24-16.95-1.94-1.46-3.65-1.86-5.29-1.86-2 0-3.91.6-6.06.6-1.32 0-2.73-.23-4.31-.96-1.02-.47-1.58-1.3-2.02-2.33-.98-2.3-1.34-5.65-4.69-8.53-1.33-1.14-3.07-2.51-5.97-3.02-.25-.04-.51-.06-.77-.06-1.77 0-3.83.87-5.63.87-.45 0-.88-.05-1.29-.19-.91-.29-1.61-.92-2.23-1.68-1.27-1.56-2.15-3.73-3.55-4.95-2.49-2.17-5.02-2.61-7.64-2.61-1.75 0-3.55.19-5.4.19-.57 0-1.15-.02-1.73-.07-.26-.02-4.37-7.26-11.22-7.26zm-7.1 13.95c.02-.06.05-.13.07-.21.01.02.01.04.02.06-.02.04-.06.09-.09.15z" fill="#424242"/></g></svg>

<?xml version="1.0" encoding="UTF-8" standalone="no"?>
<!DOCTYPE svg PUBLIC "-//W3C//DTD SVG 1.1//EN" "http://www.w3.org/Graphics/SVG/1.1/DTD/svg11.dtd">
<svg width="100%" height="100%" viewBox="0 0 128 128" version="1.1" xmlns="http://www.w3.org/2000/svg" xmlns:xlink="http://www.w3.org/1999/xlink" xml:space="preserve" xmlns:serif="http://www.serif.com/" style="fill-rule:evenodd;clip-rule:evenodd;stroke-linejoin:round;stroke-miterlimit:2;">
    <path d="M65.16,12.17C64.86,12.15 59.36,2.35 50.36,5.56C45.23,7.39 45.73,15.99 47.04,18.97C51.98,21.8 56.11,25.9 61.89,26.51C60.34,25.86 58.83,25.14 57.41,24.25C58.83,25.14 60.34,25.86 61.89,26.51C62.13,26.54 62.37,26.57 62.61,26.58C62.81,21.59 63.39,16.64 65.16,12.17Z" style="fill:rgb(255,204,128);fill-rule:nonzero;"/>
    <path d="M83.49,19.6C82.22,18.04 81.34,15.87 79.94,14.65C75.27,10.57 70.47,12.61 65.16,12.17C63.39,16.65 62.81,21.6 62.61,26.57C62.36,26.56 62.13,26.53 61.89,26.5C68.24,29.15 75.35,30.45 80.24,35.75C80.2,35.16 80.18,34.57 80.17,33.98C78.22,32.57 76.23,31.25 74.11,30.2C76.23,31.25 78.22,32.57 80.17,33.98C80.09,28.92 81.2,23.97 83.49,19.6Z" style="fill:rgb(255,204,128);fill-rule:nonzero;"/>
    <path d="M104.07,32.21C103.09,29.91 102.73,26.56 99.38,23.68C98.05,22.54 96.31,21.17 93.41,20.66C91.07,20.24 88.02,22.03 85.71,21.27C84.8,20.98 84.1,20.35 83.48,19.59C81.2,23.97 80.09,28.92 80.16,33.98C86.8,38.79 92.85,44.73 101.03,45.06C101.23,40.35 102.06,36 104.07,32.21Z" style="fill:rgb(255,204,128);fill-rule:nonzero;"/>
    <path d="M113.16,57.41C117.83,55.63 121.94,53.94 122,53.72C124.31,45.61 126.73,40.5 121.76,36.77C115.98,32.43 112.34,37.45 106.1,34.55C105.08,34.08 104.52,33.25 104.08,32.22C102.07,36.01 101.23,40.36 101.04,45.07C100.63,45.05 100.22,45.01 99.82,44.97C103.17,50.2 107.86,54.4 113.16,57.41Z" style="fill:rgb(255,204,128);fill-rule:nonzero;"/>
    <path d="M99.82,44.96C92.26,44.13 86.48,38.55 80.17,33.98C80.18,34.57 80.19,35.16 80.24,35.75C75.35,30.45 68.24,29.15 61.89,26.5C56.11,25.89 51.71,21.88 46.77,19.04C46.79,19.08 47.05,18.22 47.07,18.26L32.97,55.45L23.34,75.51C23.89,74.36 34.41,73.94 35.98,73.72C40.4,73.11 44.83,72.5 49.25,71.88C58.09,70.62 66.92,69.28 75.69,67.61C84.46,65.95 93.17,63.97 101.73,61.45C104.32,60.69 108.97,59.01 113.16,57.41C107.86,54.4 103.17,50.2 99.82,44.96Z" style="fill:rgb(242,210,153);fill-rule:nonzero;"/>
    <path d="M23.71,74.82L5.42,92.19L5.62,117.79C5.62,117.79 5,122.48 6.55,123.03C8.11,123.59 23.9,120.01 27.26,119.37C35.79,117.73 44.12,115.2 52.4,112.58C56.08,111.42 59.77,109.78 63.54,109.16C67.88,108.45 71.79,107.68 75.97,106.2C88.36,101.8 100.73,97.57 113.15,93.48C115.8,92.61 118.66,90.39 119.28,87.58C119.87,84.89 119.34,81.94 119.59,79.19C120.37,70.71 121.15,62.23 121.94,53.76C90.55,66.93 56.84,69.95 23.71,74.82Z" style="fill:rgb(255,204,128);fill-rule:nonzero;"/>
    <path d="M105.75,85.49C108.68,83.48 111.57,81.93 114.17,80.22C114.51,74.47 115.04,65.38 115.35,60.2C108.07,63.3 100.68,65.99 93.71,69.13C80.85,72.83 66.98,75.45 54,82.33C50.74,84.32 48.2,86.15 44.98,87.08C37.54,87.84 31.5,88.83 25.07,90.69C18.39,92.31 12.48,95.63 5.31,95.34C5.54,99.97 5.92,108.52 5.82,111.51C5.74,113.78 5.61,115.98 5.71,117.57C31.5,110.45 57.3,103.22 83.21,93.05C89.68,90.13 100.21,91.61 105.75,85.49Z" style="fill:rgb(247,140,4);fill-rule:nonzero;"/>
    <path d="M105.75,85.49C100.21,91.62 89.68,90.13 83.21,93.05C57.29,103.22 31.5,110.45 5.71,117.57C5.79,118.91 6.03,119.8 6.6,119.89C7.84,120.09 24.46,116.54 30.21,114.19C35.96,111.84 55.64,107.33 62.33,105.43C62.33,105.43 81.6,100.03 85.83,98.03C90.06,96.03 94.62,94.68 101.89,91.98C107.74,89.81 113.7,88.37 113.89,85.1C113.93,84.38 114.04,82.58 114.17,80.2C111.58,81.93 108.68,83.47 105.75,85.49ZM24.67,91.91C31.1,90.05 38.9,89.13 46.34,88.38C49.55,87.45 51.42,85.06 54.67,83.07C69.2,77.13 80.85,72.84 93.71,69.12C100.68,65.98 108.07,63.29 115.35,60.19L115.58,56.24L100.39,60.23L5.15,92.27C5.15,92.27 5.22,93.5 5.31,95.34C8.68,98.85 17.99,93.53 24.67,91.91Z" style="fill:rgb(247,140,4);fill-rule:nonzero;"/>
    <path d="M47.05,18.52C47.05,18.52 23.67,55.88 17.4,68.6C10.38,82.85 7.91,85.93 7.91,85.93C7.91,85.93 3.32,92.51 6.11,92.56C7.93,92.59 12.4,92.38 17.99,90.51C20.97,89.51 24.82,87.56 28.67,87.28C31.4,87.08 35.88,86.17 40.86,84.22C46.31,82.08 52.59,80.16 59.25,78.31C68.84,75.64 77.02,70.23 81.01,68.78C90.4,65.36 115.95,55.99 115.95,55.99C115.95,55.99 95.91,40.83 79.18,31.93C62.45,23.03 47.05,18.52 47.05,18.52Z" style="fill:rgb(255,167,38);fill-rule:nonzero;"/>
    <path d="M67.45,52.62C69.74,54.91 70.52,59.24 69.4,62.64C68.65,64.91 67.26,67.04 65.31,68.12C61.09,70.45 55.48,70.38 54.75,70.71C58.08,66.3 67.44,52.61 67.45,52.62Z" style="fill:rgb(217,193,165);fill-rule:nonzero;"/>
    <path d="M62.69,48.35C79.52,57.41 55.88,70.14 55.87,70.14C49.96,72.4 46.25,72.48 41.06,71C37.02,69.84 35.72,67.22 34.64,64.73C41.28,63.1 48.91,63.91 55.21,60.5C58.88,59.09 64.57,54.53 62.69,48.35Z" style="fill:rgb(253,233,210);fill-rule:nonzero;"/>
    <path d="M62.64,48.01C62.72,48.22 62.85,48.37 62.85,48.37C64.73,54.55 58.96,59.1 55.29,60.5C48.99,63.91 41.6,63.33 34.96,64.96C34.871,64.843 34.763,64.741 34.64,64.66C39.89,62.28 45.52,60.81 51.55,58.79C56.47,56.13 60.53,52.94 62.64,48.01Z" style="fill:rgb(238,212,181);fill-rule:nonzero;"/>
    <path d="M33.31,52.36C33.35,52.37 33.38,52.37 33.42,52.38C33.39,52.39 33.35,52.41 33.32,52.42C33.31,52.4 33.31,52.38 33.31,52.36Z" style="fill:rgb(251,226,197);fill-rule:nonzero;"/>
    <path d="M33.34,52.87C36.64,52.29 40.79,53.13 43.61,53.04C49.54,52.85 58.25,47.46 55.62,39.17C55.31,36.74 53.09,34.02 50.06,32.74C49.713,32.467 49.349,32.217 48.97,31.99C62.03,34.97 62.85,44.37 62.65,47.97C62.51,48.37 60.84,54.37 51.55,58.79C47.79,60.05 43.92,61.05 40.22,62.45C37.24,63.58 34.67,65.91 31.33,64.18C29.13,63.04 27.8,60.42 28.17,57.97C28.67,54.65 30.74,53.32 33.34,52.87Z" style="fill:rgb(251,226,197);fill-rule:nonzero;"/>
    <path d="M52.91,37.62C53.13,36.25 51.92,34.23 50.06,32.75C53.08,34.03 55.31,36.75 55.62,39.18C58.25,47.47 49.54,52.86 43.61,53.05C40.19,53.47 36.75,52.87 33.42,52.39C41.53,49.25 50.59,47.58 52.91,37.62Z" style="fill:rgb(238,212,181);fill-rule:nonzero;"/>
    <path d="M33.59,46.33C34.13,44.98 35.15,43.8 36.9,42.84C40.78,40.72 45.41,41.39 49.48,39.7C53.58,37.99 50.38,33.39 49.01,31.99C49.59,32.12 49.82,32.31 50.12,32.65C51.98,34.13 53.13,36.24 52.92,37.61C50.6,47.58 41.54,49.24 33.43,52.37C33.39,52.36 33.36,52.36 33.32,52.35C32.98,50.12 32.89,48.08 33.59,46.33Z" style="fill:rgb(253,242,230);fill-rule:nonzero;"/>
</svg>
